!! 00000] TT[WS
!!!OTL: Xiu hebao
!!!ARE: Asia, China,ÿShanxi Qiuwo
!! Ethnic Group: Han
!! WI, 113 (1)
!!!SCT: J0131
!!!YEM: Copyright 1995, estate of Helmut Schaffrath.
**kern
*ICvox
*Ivox
*M2/4
*k[b-]
*F:
{8cc
8cc
8b-
8ff
=1
8dd
8cc
8b-
8g
=2
8cc
16cc
16dd
8b-
8g
=3
16f
16g
16e
16c
4f}
=4
{8g
4cc
8b-
=5
8cc
16g
16f
4e
=6
8b-
16b-
16g
16f
16g
16e
16d
=7
8.c
16B-
4c}
=8
{8g
4cc
8b-
=9
8cc
16g
16f
4e
=10
8b-
16b-
16g
16f
16g
16e
16d
=11
8.c
16B-
4c}
==
!!!AGN: Xiaodiao. Qingge
!!!ONB: ESAC (Essen Associative Code) Database: CHINA
!!!AMT: simple duple
!!!AIN: vox
!!!EED: Helmut Schaffrath
!!!EEV: 1.0
*-
